packages/sources/icons/src/vitamix/package-fill.svg

<svg width="16" height="16" viewBox="0 0 16 16" xmlns="http://www.w3.org/2000/svg"><path d="M1.99658 1.33002C1.62848 1.33002 1.33008 1.62842 1.33008 1.99652V13.9935C1.33008 14.3616 1.62848 14.66 1.99658 14.66H13.9936C14.3617 14.66 14.6601 14.3616 14.6601 13.9935V1.99652C14.6601 1.62842 14.3617 1.33002 13.9936 1.33002H1.99658ZM10.6611 7.32852C10.6611 7.69662 10.3627 7.99502 9.99458 7.99502H5.99558C5.62748 7.99502 5.32908 7.69662 5.32908 7.32852V2.66302H6.66208V6.66202H9.32808V2.66302H10.6611V7.32852Z"/></svg>

<svg width="16" height="16" xmlns="http://www.w3.org/2000/svg"><path d="M1.997 1.33a.666.666 0 0 0-.667.667v11.996c0 .369.298.667.667.667h11.997a.666.666 0 0 0 .666-.667V1.997a.666.666 0 0 0-.666-.667H1.997Zm8.664 5.999a.667.667 0 0 1-.666.666h-4a.666.666 0 0 1-.666-.666V2.663h1.333v3.999h2.666V2.663h1.333v4.666Z"/></svg>
